X:784
T:Port Patrick
T:Portpatrick
D:Alison Kinnaird, The Harp Key
Z:Nigel Gatherer
M:6/8
L:1/8
K:G
g | dBG GAB | c2B A2G | dBG GAG | A2B c2
g | dBG GAB | c2B A2G | BdB cAd | BGG G2 :|
d | ece dBd | ece dBd | efg dBG | A2B c2e |
    def gfe | dcB A2G | BdB cAd | BGG G2 :|
 
<end>
<start>
